symbols/web/forum/materialsymbolsoutlined/forum_wght700gradN25fill1_24px.svg

<svg xmlns="http://www.w3.org/2000/svg" height="24" width="24"><path d="M.85 17.25v-15q0-.65.45-1.1Q1.75.7 2.4.7h13.2q.65 0 1.1.45.45.45.45 1.1v9.225q0 .65-.45 1.1-.45.45-1.1.45H5.1Zm6.375 1.775q-.675 0-1.112-.45-.438-.45-.438-1.1V14.9h13.35V5.55H21.6q.65 0 1.1.45.45.45.45 1.1v16l-4.075-4.075Z"/></svg>

<svg xmlns="http://www.w3.org/2000/svg" height="24" width="24"><path d="M0.85 17.25V2.25Q0.85 1.6 1.3 1.15Q1.75 0.7 2.4 0.7H15.6Q16.25 0.7 16.7 1.15Q17.15 1.6 17.15 2.25V11.475Q17.15 12.125 16.7 12.575Q16.25 13.025 15.6 13.025H5.1ZM7.225 19.025Q6.55 19.025 6.113 18.575Q5.675 18.125 5.675 17.475V14.9H19.025V5.55H21.6Q22.25 5.55 22.7 6Q23.15 6.45 23.15 7.1V23.1L19.075 19.025Z"/></svg>
